X: 7665
T:Polska fr Finland
R:Polska
O:Finland
M:3/4
K:D
D>D FF AA|d>e f/e/f/g/ a>f|\
gb/g/ fa/f/ eg/e/|f/e/d/c/ dA FD|\
D>D FF AA|d>e f/e/f/g/ a>f|
gb/g/ fa/f/ eg/e/|f/e/d/c/ d4::\
e>e cc ee|a>a f/g/f/e/ d2|
b>b gg ee|a>g f/g/f/e/ d2|\
D>D FF AA|d>e f/e/f/g/ a>f|\
gb/g/ fa/f/ eg/e/ |f/e/d/c/ d4 :|
